X: 1
T: the Volunteer
M: C|
L: 1/8
R: Reel
F: http://www.novasession.com/bw/bwreels.txt
K: G
GE \
| DEGA BG~G2 | AGEF G2AB | c2cB cBAG | E2EE E2GE |
| DEGA BG~G2 | AGEF G2AB | c2cB cBAG | D2DD D2 :|
|: Bc \
| d3B c3A | B3G A2Bc | dBcA BGAG | E2EE E2Bc |
| d3B c3A | B3G A2Bc | dBcA BGAG | D2DD D2 :|
